!!!COM:      Bach, Johann Sebastian
!!!CDT:      1685/03/31/-1750/07/28/
!!!OPR@@GER: Das wohltemperirte Clavier
!!!OVM@@GER: Band II
!!!OPR@ENG:  Well-Tempered Clavier
!!!OVM@ENG:  Book II
!!!OTL:      Prelude
!!!OKY:      C-sharp minor
!!!ONM:      no. 4
!!!SCT:      BWV 873
!!!OMV:      1
**kern	**kern	**kern	**kern
*clefF4	*	*clefG2	*clefG2
*k[f#c#g#d#]	*	*k[f#c#g#d#]	*k[f#c#g#d#]
*c#:	*	*c#:	*c#:
*M9/8	*	*M9/8	*M9/8
*MM71	*MM71	*MM71	*MM71
=1-	=1-	=1-	=1-
8C#	8ryy	4.r	4.r
8E	1ryy	.	.
8G#	.	.	.
[2.c#	.	4.r	8r
.	.	.	8r
.	.	.	8g#
.	.	4.e	4cc#M
.	.	.	8ee
=2	=2	=2	=2
8c#]	8ryy	4.f#	[4.dd#
8B	1ryy	.	.
8A	.	.	.
[4.B	.	4.g#	8.dd#]
.	.	.	16dd#
.	.	.	16ee
.	.	.	16ff#
8.B]	.	4.d#	4gg#m
16E	.	.	.
16F#	.	.	8gg#
16G#	.	.	.
=3	=3	=3	=3
8G#Q	.	.	.
[4.Ap	8ryy	[4.c#	4gg#
.	1ryy	.	.
.	.	.	8cc#
8.A]	.	8.c#]	[4.ff#M
16G#	.	16ee	.
16F#	.	16dd#	.
16E	.	16cc#	.
4D#	.	8cc#	4ff#]
.	.	8b#	.
8F#	.	8dd#	8ff#
=4	=4	=4	=4
.	.	8aQ	.
4BB#	8ryy	4g#	4ff#
.	1ryy	.	.
8GG#	.	8b#	8gg#
.	.	.	8ff#Q
4.C#	.	[4.cc#	[4.eep
4.CC#	.	8cc#]	8ee]
.	.	8b#X	8dd#
.	.	8cc#	8ee
=5	=5	=5	=5
8GG#	8ryy	4.b#	4.dd#
8BB#	1ryy	.	.
8D#	.	.	.
8.G#	.	4.r	8r
.	.	.	8r
16A	.	.	.
16G#	.	.	8dd#
16F#	.	.	.
.	.	.	8dd#Q
4G#m	.	8r	4ee
.	.	8r	.
8G#	.	8g#	8b#X
=6	=6	=6	=6
.	.	.	8b#Q
8.G#	8ryy	4.a	[4.cc#p
.	1ryy	.	.
16C#	.	.	.
16D#	.	.	.
16E#	.	.	.
8.F#M	.	4.r	8.cc#]
16G#	.	.	16ee
16F#	.	.	16dd#
16En	.	.	16cc#
.	.	.	8cc#Q
4F#	.	8r	4aa
.	.	8r	.
8F#	.	8a	8cc#
=7	=7	=7	=7
.	.	.	8cc#Q
8F#	8ryy	4.g#	4b#
16G#	1ryy	.	.
16F#	.	.	.
16E	.	.	8g#
16D#	.	.	.
.	.	.	8g#Q
[4.E	.	8r	[2.cc#Mp
.	.	8r	.
.	.	8G#	.
8E]	.	4c#	.
8D#	.	.	.
8C#	.	8e	.
=8	=8	=8	=8
8F#	8ryy	[4.d#	4cc#]
8E	1ryy	.	.
8D#	.	.	8dd#
.	.	.	8cc#Q
4G#	.	8.d#]	[2.bp
.	.	16d#	.
8F#	.	16e	.
.	.	16f#	.
8F#Q	.	.	.
8.E#	.	4g#	.
16E#	.	.	.
16F#	.	8g#	.
16G#	.	.	.
=9	=9	=9	=9
8A	8ryy	4g#	4.b]
8B	1ryy	.	.
8G#	.	8c#	.
8F#	.	[4.f#	4aW
8G#	.	.	.
8E	.	.	8g#
.	.	.	8g#Q
8D#	.	4f#]	4a
8E	.	.	.
8C#	.	8f#	8b
=10	=10	=10	=10
.	.	.	8aQ
8BB#	8ryy	4f#	4g#
8AA#	1ryy	.	.
8GG#	.	8g#	8r
8C#	.	[4.eW	8r
8D#	.	.	8r
8BBn	.	.	8g#
8AA#X	.	8e]	[4.cc#
8BB	.	8d#	.
8GG#	.	8e	.
=11	=11	=11	=11
8FF##	8ryy	2.d#	4cc#]
8EE#	1ryy	.	.
8DD#	.	.	8dd#
.	.	.	8cc#Q
8GG#	.	.	[4.bWp
8BB	.	.	.
8AA#	.	.	.
8BB	.	4.g#	8b]
8C#	.	.	8a#
8D#	.	.	8b
=12	=12	=12	=12
.	.	.	8bQ
8E	8ryy	4.g#	[4.a#p
8F#	1ryy	.	.
8D#	.	.	.
8C#	.	4f##	4a#]
8D#	.	.	.
8BB	.	8g#	8b
16AA#	.	[4.a#X	[4.cc#
16BB	.	.	.
8C#	.	.	.
8AA#	.	.	.
=13	=13	=13	=13
[4.DD#	8ryy	4a#]	8cc#]
.	1ryy	.	8ee
.	.	8b	8dd#
.	.	.	8dd#Q
4DD#]	.	[4.cc#	[4.eeMp
8F##	.	.	.
8F##Q	.	.	.
[4.G#p	.	4cc#]	4ee]
.	.	8a#	8cc#
=14	=14	=14	=14
8G#]	8ryy	4.b	4dd#m
8F#X	1ryy	.	.
8E	.	.	8ee
4D#	.	4.b#	8ff#
.	.	.	8ee
8G#	.	.	8dd#
[4C#T	.	4.cc#	8ee#
.	.	.	8gg#
16C#]	.	.	8ff##
32BB#	.	.	.
32C#	.	.	.
=15	=15	=15	=15
[4C##t	8ryy	4.bn	8gg#
.	1ryy	.	8ff##
16C##]	.	.	8ee#
32BB#	.	.	.
32C##	.	.	.
[4.D#	.	8a#	4ff##X
.	.	8cc#	.
.	.	8b	8gg#
4D#]	.	16cc#	4aa#X
.	.	16dd#	.
.	.	8een	.
8d#	.	8dd#	8ff##X
=16	=16	=16	=16
.	.	8cc#Q	.
8e	8ryy	4b	4gg#
8d#	1ryy	.	.
8c#	.	8cc#	8aa#
4.d#	.	4.b	4.gg#
4.D#	.	4a#X	4ff##w
.	.	8b	8gg#
=17	=17	=17	=17
8GG#	8ryy	[4.g#	4.gg#
8BB	1ryy	.	.
8D#	.	.	.
[2.G#	.	4g#]	4.r
.	.	8dd#	.
.	.	8dd#Q	.
.	.	4ee	4.r
.	.	8cc#	.
=18	=18	=18	=18
.	.	8bQ	.
8.G#]	8ryy	[4.a#p	8ryy
.	1ryy	.	1ryy
16C#	.	.	.
16D#	.	.	.
16E	.	.	.
4F#	.	8.a#]	.
.	.	16cc#	.
8FF#	.	16b	.
.	.	16a#	.
[4.F#M	.	8dd#	.
.	.	16ff#	.
.	.	16ee	.
.	.	8ff#	.
=19	=19	=19	=19
4.F#]	8ryy	8b#w	4.r
.	1ryy	8a#	.
.	.	8g#	.
[4ET	.	[2.cc#	8r
.	.	.	8r
16E]	.	.	8gg#
32D#	.	.	.
32E	.	.	.
.	.	.	8gg#Q
[4F#T	.	.	4aa
16F#]	.	.	8ff#
32E	.	.	.
32F#	.	.	.
=20	=20	=20	=20
.	.	.	8eeQ
4G#	8ryy	4.cc#]	[4.dd#p
.	1ryy	.	.
8A	.	.	.
4G#	.	[2.b	8.dd#]
.	.	.	16ff#
8F#	.	.	16ee#
.	.	.	16dd#
8E#	.	.	8gg#
8F#	.	.	16bb
.	.	.	16aa
8G#	.	.	8bb
=21	=21	=21	=21
4.C#	8ryy	4.b]	8ee#w
.	1ryy	.	8dd#
.	.	.	8cc#
4r	.	8a	[2.ff#
.	.	8b	.
8c#	.	8a	.
8c#Q	.	8aQ	.
4dn	.	4g#	.
8B	.	8a	.
=22	=22	=22	=22
8AQ	.	.	.
[4.G#p	8ryy	[4.b	8ff#]
.	1ryy	.	8ee
.	.	.	8dd#
8.G#]	.	4b]	[2.ee
16B	.	.	.
16A#	.	8cc#	.
16G#	.	.	.
.	.	8bQ	.
8c#	.	4a#	.
16e	.	.	.
16d#	.	.	.
8e	.	8g#	.
=23	=23	=23	=23
8A#w	8ryy	4cc#	4.ee_
8G#	1ryy	.	.
8F#	.	8a#	.
4B	.	[4.f#	8ee]
.	.	.	8dd#
8BB	.	.	8cc#
[4.BM	.	4f#]	8dd#
.	.	.	8cc#
.	.	8g#	8b
=24	=24	=24	=24
8B]	8ryy	8e	[4.cc#
16c#	1ryy	8d#	.
16B	.	.	.
16A	.	8c#	.
16G#	.	.	.
4A	.	8f#	4cc#]
.	.	8g#	.
8AA	.	8a	8ff#
[4.AM	.	8g#	8ee
.	.	8f#	8dd#
.	.	8e	8cc#
=25	=25	=25	=25
8A]	8ryy	8d#	[4.b
16B	1ryy	8c#	.
16A	.	.	.
16G#	.	8B	.
16F#	.	.	.
4G#	.	[2.e	8b]
.	.	.	8a
8c#	.	.	8g#
8BQ	.	.	.
4A	.	.	8cc#
.	.	.	8dd#
8G#	.	.	8ee
=26	=26	=26	=26
8F#	8ryy	2.e]	8a
8G#	1ryy	.	8b
8A	.	.	8cc#
.	.	.	8aQ
4.BM	.	.	8.g#
.	.	.	16f#
.	.	.	16e
.	.	.	16f#
4.BB	.	4.d#	[4f#T
.	.	.	16f#]
.	.	.	32e
.	.	.	32f#
=27	=27	=27	=27
[4.E	8ryy	4e	8e
.	1ryy	.	8g#
.	.	8r	8b
8E]	.	4.r	16ee
.	.	.	16dd#
16G#	.	.	8ee
16F#	.	.	.
16E	.	.	8ee
16D#	.	.	.
8C#	.	4.r	4eeM
8B	.	.	.
8A#	.	.	8ee
=28	=28	=28	=28
[4.B	8ryy	8B	8ee
.	1ryy	8d#	16ff#
.	.	.	16ee
.	.	8f#	16dd#
.	.	.	16cc#
8.B]	.	16b	4dd#
.	.	16a	.
.	.	8b	.
16An	.	.	.
16G#	.	8b	8ee#
16F#	.	.	.
.	.	.	8ff#Q
4G#	.	4b	4ee#
8c#	.	8b	8ff#
=29	=29	=29	=29
8F#	8ryy	8b	[4.ff#
8A	1ryy	16cc#	.
.	.	16b	.
8c#	.	16a	.
.	.	16g#	.
16f#	.	[4.a	8ff#]
16e#	.	.	.
8f#	.	.	16aa
.	.	.	16gg#
8f#	.	.	16ff#
.	.	.	16ee
4f#M	.	4a]	8dd#
.	.	.	16ff#
.	.	.	16ee
8f#	.	8a	8ff#
=30	=30	=30	=30
.	.	.	8cc#Q
8f#	8ryy	4.g#	4b#
16g#	1ryy	.	.
16f#	.	.	.
16e	.	.	8dd#
16d#	.	.	.
8e	.	8r	[4.gg#
16e	.	8r	.
16d#	.	.	.
8e	.	8g#	.
4eM	.	[4.cc#	8.gg#]
.	.	.	16gg#
8e	.	.	16aa#
.	.	.	16bbn
=31	=31	=31	=31
8e	8ryy	4.cc#]	[4aa#t
16f#	1ryy	.	.
16e	.	.	.
16dn	.	.	16aa#]
16c#	.	.	32gg#
.	.	.	32aa#
16d	.	8r	8.bb
16c#	.	.	.
8d	.	8r	.
.	.	.	16aan
8d	.	8f#	16gg#
.	.	.	16ff#
.	.	.	8ff#Q
4d	.	4b	4gg#
8d	.	8g#	8ee#
=32	=32	=32	=32
.	.	.	8ee#Q
4c#	8ryy	4a	4ff#
.	1ryy	.	.
8B	.	8b	8gg#
.	.	.	8ff#Q
4.c#	.	4g#	[4.ee#Xp
.	.	16b	.
.	.	32cc#	.
.	.	32ddn	.
4.C#	.	8dd	4ee#]
.	.	8cc#	.
.	.	8b	8ff#
=33	=33	=33	=33
8FF#	8ryy	4.a	[4.ff#
8AA	1ryy	.	.
8C#	.	.	.
[2.F#	.	4r	4ff#]
.	.	8c#	16ff#
.	.	.	32gg#
.	.	.	32aa
.	.	.	8eeQ
.	.	4f#	4ddn
.	.	8a	8cc#
=34	=34	=34	=34
.	.	.	8cc#Q
8F#]	8ryy	[4.g#	8.b
8E	1ryy	.	.
.	.	.	16ddn
8Dn	.	.	16cc#
.	.	.	16b
8DQ	.	.	.
[4.Ep	.	8.g#]	[4.gg#
.	.	16g#	.
.	.	16a	.
.	.	16b	.
8.E]	.	4cc#	4gg#]
16AA	.	.	.
16BB	.	8cc#	8aa
16C#	.	.	.
=35	=35	=35	=35
.	.	.	8gg#Q
[4.Dn	8ryy	4cc#	[4.ff#p
.	1ryy	.	.
.	.	8f#	.
8.D]	.	[4.b	8.ff#]
16C#	.	.	16aa
16BB	.	.	16gg#
16AA	.	.	16ff#
4GG#	.	4b]	8ff#
.	.	.	8ee#
8BB	.	8b	8gg#
=36	=36	=36	=36
.	.	.	8ddnQ
4EE#	8ryy	4b	4cc#
.	1ryy	.	.
8CC#	.	8cc#	8ee#
.	.	8bQ	.
8.FF#	.	[4.ap	4ff#
16C#	.	.	.
16D#X	.	.	8aa
16En	.	.	.
4F#	.	8a]	8dd#
.	.	8g#	8een
8F#	.	8a	8ff#
=37	=37	=37	=37
.	.	.	8cc#Q
8F#	8ryy	4.g#	4b#
16G#	1ryy	.	.
16F#	.	.	.
16E	.	.	8g#
16D#	.	.	.
8E	.	4r	[2.cc#
16F#	.	.	.
16E	.	.	.
16D#	.	8g#	.
16C#	.	.	.
8F#	.	4aM	.
16A	.	.	.
16G#	.	.	.
8A	.	8e	.
=38	=38	=38	=38
8D#	8ryy	[4.f#	8.cc#]
8E	1ryy	.	.
.	.	.	16ee
8F#	.	.	16dd#
.	.	.	16cc#
.	.	.	8cc#Q
4G#	.	8.f#]	4.b#
.	.	16a	.
8D#	.	16g#	.
.	.	16f#	.
.	.	8f#Q	.
4BB#	.	4dd#	4.r
8GG#	.	8f#	.
=39	=39	=39	=39
8.C#	8ryy	[2.e	4.r
.	1ryy	.	.
16G#	.	.	.
16A#	.	.	.
16B#	.	.	.
8c#	.	.	8r
8d#	.	.	8r
8Bn	.	.	8g#
8An	.	4e]	4cc#M
8B	.	.	.
8G#	.	8cc#	8ee
=40	=40	=40	=40
.	.	.	8eeQ
8.F#	8ryy	4.cc#	[4.dd#p
.	1ryy	.	.
16D#	.	.	.
16E	.	.	.
16F#	.	.	.
8G#	.	4.b#	8.dd#]
8A	.	.	.
.	.	.	16dd#
8F#	.	.	16ee
.	.	.	16ff#
[4E#t	.	8r	4gg#
.	.	16bn	.
.	.	16a#	.
16E#]	.	8b	8gg#
32D#	.	.	.
32E#	.	.	.
=41	=41	=41	=41
.	.	.	8aanQ
[4.F#	8ryy	4.b	4gg#
.	1ryy	.	.
.	.	.	8cc#
4F#]	.	8.a#	[4.ff#
.	.	16b	.
8E	.	16a#	.
.	.	16g#	.
8D#	.	4an	4ff#]
8E	.	.	.
8C#	.	8a	8ff#
=42	=42	=42	=42
4BB#	8ryy	8a	4ff#
.	1ryy	8g#	.
8GG#	.	8b#	8gg#
.	.	.	8ff#Q
4.C#	.	[4.cc#	[4.eeWp
4.CC#	.	8cc#]	8ee]
.	.	8b#X	8dd#
.	.	8cc#	8ee
=43	=43	=43	=43
.	.	.	8eeQ
8GG#	8ryy	4.b#	4.dd#
8BB#	1ryy	.	.
8D#	.	.	.
8.G#	.	4.r	8r
.	.	.	8r
16A	.	.	.
16G#	.	.	8dd#
16F#	.	.	.
.	.	.	8dd#Q
4G#m	.	8r	4ee
.	.	8r	.
8G#	.	8g#	8b#X
=44	=44	=44	=44
.	.	.	8b#Q
8.G#	8ryy	4.a	[4.cc#p
.	1ryy	.	.
16C#	.	.	.
16D#	.	.	.
16E#	.	.	.
8.F#M	.	4.r	8.cc#]
16G#	.	.	16ee
16F#	.	.	16dd#
16En	.	.	16cc#
.	.	.	8cc#Q
4F#M	.	8r	4aa
.	.	8r	.
8F#	.	8a	8cc#
=45	=45	=45	=45
.	.	.	8cc#Q
8.F#	8ryy	4g#	4b#
.	1ryy	.	.
16BB#	.	.	.
16C#	.	8r	8g#
16D#	.	.	.
8.E	.	8r	[4.gg#
.	.	8r	.
16F#	.	.	.
16E	.	8g#	.
16D#	.	.	.
4E	.	16cc#	4gg#]
.	.	16dd#	.
.	.	8ee	.
8E	.	8cc#	8gg#
=46	=46	=46	=46
.	.	8bQ	.
8.E	8ryy	[4.a#p	4.gg#
.	1ryy	.	.
16AA#	.	.	.
16BB#	.	.	.
16C#	.	.	.
8.D#	.	8.a#]	4.ff##
16E	.	16cc#	.
16D#	.	16b	.
16C#	.	16a#	.
4D#	.	8b#	8r
.	.	8cc#	8r
8D#	.	8dd#	8ff#X
=47	=47	=47	=47
.	.	.	8ff#Q
8.D#	8ryy	[4.g#	8.ee#
.	1ryy	.	.
16GG#	.	.	16dd#
16AA#	.	.	16cc#
16BB#	.	.	16dd#
.	.	.	8dd#Q
8.C#	.	8.g#]	[2.eenp
16D#	.	16e	.
16C#	.	16f#	.
16BB#X	.	16g#	.
8C#	.	8a	.
8D#	.	16cc#	.
.	.	16b#	.
8E	.	8cc#	.
=48	=48	=48	=48
4AA	8ryy	[4.f#	8ee]
.	1ryy	.	8dd#
8A	.	.	8cc#
.	.	.	8cc#Q
8.A	.	4f#]	4.b#
16D#	.	.	.
16E	.	8g#	.
16F#	.	.	.
4G#	.	8f#	[4.bn
.	.	8e#	.
8G#	.	8d#	.
=49	=49	=49	=49
.	.	8d#Q	.
4G#	8ryy	4.e#	4bn]
.	1ryy	.	.
8C#	.	.	8cc#
16F#	.	4f#	8b
16E#	.	.	.
8F#	.	.	8a
8F#	.	8en	8g#
.	.	8eQ	8g#Q
4F#	.	4d#	4f#
8F#	.	8c#	8e
=50	=50	=50	=50
.	.	.	8eQ
8F#	8ryy	4.B#	8.d#
16G#	1ryy	.	.
16F#	.	.	16g#
16E	.	.	16b#X
16D#	.	.	16dd#
[4.ET	.	4.r	16gg#
.	.	.	16ff#
.	.	.	8gg#
.	.	.	8gg#
4E]	.	4.r	4gg#
16D#	.	.	8gg#
16E	.	.	.
=51	=51	=51	=51
8D#	8ryy	8r	8gg#
8r	1ryy	16r	16aa
.	.	16d#	16gg#
8r	.	16f#	16ff#
.	.	16a#	16ee
8r	.	16dd#	4ff#
.	.	16cc#	.
16r	.	8dd#	.
16E	.	.	.
16D#	.	8dd#	8ff#
16C#	.	.	.
16BB#	.	4dd#	4ff#
16C#	.	.	.
8D#	.	.	.
8GG#	.	8dd#	8ff#
=52	=52	=52	=52
8.C#	8ryy	8dd#	4.ff#
.	1ryy	16ee	.
16D#	.	16dd#	.
16E	.	16cc#	.
16G#	.	16b#	.
16c#	.	8cc#	8ee
16B#	.	.	.
8c#	.	8dd#	8ff#
8c#	.	8ee	8gg#
4c#	.	8a#	8cc#
.	.	8bn	8dd#
8c#	.	8cc#	8ee
=53	=53	=53	=53
.	.	.	8bQ
8c#	8ryy	4.f##	4a#
16d#	1ryy	.	.
16c#	.	.	.
16B	.	.	8d#
16A#	.	.	.
8B	.	8r	16dd#
.	.	.	16cc#
16B	.	8r	[4dd#
16A#	.	.	.
8B	.	8d#	.
4B	.	[4.g#	8.dd#]
.	.	.	16dd#
8B	.	.	16ee#
.	.	.	16ff#
=54	=54	=54	=54
8B	8ryy	4.g#]	[4ee#t
16c#	1ryy	.	.
16B	.	.	.
16An	.	.	16ee#]
16G#	.	.	32dd#
.	.	.	32ee#
16A	.	8c#	8.ff#
16F#	.	.	.
16G#	.	8r	.
16A	.	.	16een
16B	.	8r	16ddn
16c#	.	.	16cc#
16dn	.	8r	[4.b
16c#	.	.	.
8d	.	16r	.
.	.	16a	.
8B	.	16g#	.
.	.	16f#	.
=55	=55	=55	=55
8F#Q	.	.	.
8.E#	8ryy	2.g#	4b]
.	1ryy	.	.
16C#	.	.	.
16D#	.	.	8cc#
16E#	.	.	.
8F#	.	.	[4.a
16A	.	.	.
16G#	.	.	.
16F#	.	.	.
16En	.	.	.
8D#	.	[4.f#	4a_
8E	.	.	.
8C#	.	.	16a]
.	.	.	32g#
.	.	.	32a
=56	=56	=56	=56
16BB#	8ryy	4f#]	4g#
16C#	.	.	.
8D#	1ryy	.	.
8GG#	.	8g#	8r
8C#	.	[4.e	8r
8E	.	.	8r
8D#	.	.	8g#
8E	.	8e]	[4.cc#
8F#	.	8d#	.
8G#	.	8e	.
=57	=57	=57	=57
.	.	8eQ	.
8A	8ryy	[4.d#p	4.cc#]
8B	1ryy	.	.
8G#	.	.	.
8F#	.	4d#]	4b#
8G#	.	.	.
8E	.	8e	8cc#
16D#	.	[4.f#	[4.dd#
16E	.	.	.
8F#	.	.	.
8D#	.	.	.
=58	=58	=58	=58
[4.GG#	8ryy	8f#]	4dd#]
.	1ryy	8a	.
.	.	8g#	8ee
.	.	8g#Q	8eeQ
4GG#]	.	[4.ap	[4.ff#p
8B#	.	.	.
8B#Q	.	.	.
[4.c#p	.	4a]	4ff#]
.	.	8f#	8dd#
=59	=59	=59	=59
.	.	.	8dd#Q
8c#]	8ryy	4g#	4.ee
8B	1ryy	.	.
8A	.	8a	.
4G#	.	8b	4.ee#
.	.	8a	.
8c#	.	8g#	.
[4F#T	.	8a#	4.ff#
.	.	8cc#	.
16F#]	.	8b#	.
32E#	.	.	.
32F#	.	.	.
=60	=60	=60	=60
[4F##t	8ryy	8cc#	4.ee
.	1ryy	8b#	.
16F##]	.	8a#	.
32E#	.	.	.
32F##	.	.	.
[4.G#	.	4b#X	8dd#
.	.	.	8ff#
.	.	8cc#	8ee
4G#]	.	4dd#	16ff#
.	.	.	16gg#
.	.	.	8aan
8GG#	.	8b#X	8gg#
=61	=61	=61	=61
.	.	.	8ff#Q
*	*staff:1	*	*
*	*clefF4	*	*
*	*k[f#c#g#d#]	*	*
8AA	4.ryy	4cc#	4ee
8GG#	.	.	.
8FF#	.	8a	8dd#
2.GG#	4.r	4.e	4.cc#
.	4.G#	4d#	4b#w
.	.	8e	8cc#
=62	=62	=62	=62
*	*staff:2	*	*
*	*clefG2	*	*
4.CC#	4.c#	4.e 4.g#	4.cc#
4.r	4.ryy	4.ryy	4.r
4.r	4.ryy	4.ryy	4.r
==	==	==	==
*-	*-	*-	*-
!!!AFR:  prelude
!!!EFL:  55/96
!!!END:  1994/01/31/
!!!VID:  260017735 Bach, BWV 873-01
!!!AST:  Baroque
!!!OCY:  Deutschland
!!!ODT:  1742///
!!!PDT:  1801///
!!!EED:  Walter Hewlett
!!!ENC:  Walter Hewlett
!!!YOR:  Bach Gesellschaft Edition xiv
!!!AFT:  enhanced SCORE
!!!RDT:  2011/10/07/ by Andreas Kornstaedt using massScr2hmd
!!!SCA1: Thematisch-systematisches Verzeichnis der musikalischen Werke 
!!!SCA2: Johann Sebastian Bach: Bach-Werke-Verzeichnis (Schmieder)
!!!YEC1: Copyright 1994, 2000 Center for Computer Assisted Research 
!!!YEC2: in the Humanities
!!!YEM1: Rights to all derivative editions reserved.
!!!YEM2: Refer to licensing agreement for further details.
!!!YEN:  United States of America
!!!ref:  @{OTL}, @{SCT}
!!muse2ps: T^@{OTL} @{ONM} in @{OKY}^C^J.S. Bach\n@{SCT}-@{OMV}^
!!muse2ps: u^@{OPR@ENG}, @{OVM@ENG}^j
